groups/aromatics/fluorene.svg

<?xml version='1.0' encoding='iso-8859-1'?>
<svg version='1.1' baseProfile='full'
              xmlns='http://www.w3.org/2000/svg'
                      xmlns:rdkit='http://www.rdkit.org/xml'
                      xmlns:xlink='http://www.w3.org/1999/xlink'
                  xml:space='preserve'
width='256px' height='256px' viewBox='0 0 256 256'>
<!-- END OF HEADER -->
<rect style='opacity:1.0;fill:#FFFFFF;stroke:none' width='256.0' height='256.0' x='0.0' y='0.0'> </rect>
<path class='bond-0 atom-0 atom-1' d='M 16.8,119.1 L 54.3,127.1' style='fill:none;fill-rule:evenodd;stroke:#000000;stroke-width:2.0px;stroke-linecap:butt;stroke-linejoin:miter;stroke-opacity:1' />
<path class='bond-1 atom-1 atom-2' d='M 54.3,127.1 L 66.2,163.6' style='fill:none;fill-rule:evenodd;stroke:#000000;stroke-width:2.0px;stroke-linecap:butt;stroke-linejoin:miter;stroke-opacity:1' />
<path class='bond-1 atom-1 atom-2' d='M 60.8,128.5 L 70.6,158.7' style='fill:none;fill-rule:evenodd;stroke:#000000;stroke-width:2.0px;stroke-linecap:butt;stroke-linejoin:miter;stroke-opacity:1' />
<path class='bond-2 atom-2 atom-3' d='M 66.2,163.6 L 103.7,171.6' style='fill:none;fill-rule:evenodd;stroke:#000000;stroke-width:2.0px;stroke-linecap:butt;stroke-linejoin:miter;stroke-opacity:1' />
<path class='bond-3 atom-3 atom-4' d='M 103.7,171.6 L 129.4,143.1' style='fill:none;fill-rule:evenodd;stroke:#000000;stroke-width:2.0px;stroke-linecap:butt;stroke-linejoin:miter;stroke-opacity:1' />
<path class='bond-3 atom-3 atom-4' d='M 101.6,165.3 L 122.9,141.7' style='fill:none;fill-rule:evenodd;stroke:#000000;stroke-width:2.0px;stroke-linecap:butt;stroke-linejoin:miter;stroke-opacity:1' />
<path class='bond-4 atom-4 atom-5' d='M 129.4,143.1 L 167.7,143.1' style='fill:none;fill-rule:evenodd;stroke:#000000;stroke-width:2.0px;stroke-linecap:butt;stroke-linejoin:miter;stroke-opacity:1' />
<path class='bond-5 atom-5 atom-6' d='M 167.7,143.1 L 193.4,171.6' style='fill:none;fill-rule:evenodd;stroke:#000000;stroke-width:2.0px;stroke-linecap:butt;stroke-linejoin:miter;stroke-opacity:1' />
<path class='bond-5 atom-5 atom-6' d='M 174.2,141.7 L 195.5,165.3' style='fill:none;fill-rule:evenodd;stroke:#000000;stroke-width:2.0px;stroke-linecap:butt;stroke-linejoin:miter;stroke-opacity:1' />
<path class='bond-6 atom-6 atom-7' d='M 193.4,171.6 L 230.9,163.6' style='fill:none;fill-rule:evenodd;stroke:#000000;stroke-width:2.0px;stroke-linecap:butt;stroke-linejoin:miter;stroke-opacity:1' />
<path class='bond-7 atom-7 atom-8' d='M 230.9,163.6 L 242.8,127.1' style='fill:none;fill-rule:evenodd;stroke:#000000;stroke-width:2.0px;stroke-linecap:butt;stroke-linejoin:miter;stroke-opacity:1' />
<path class='bond-7 atom-7 atom-8' d='M 226.5,158.7 L 236.3,128.5' style='fill:none;fill-rule:evenodd;stroke:#000000;stroke-width:2.0px;stroke-linecap:butt;stroke-linejoin:miter;stroke-opacity:1' />
<path class='bond-8 atom-8 atom-9' d='M 242.8,127.1 L 217.1,98.6' style='fill:none;fill-rule:evenodd;stroke:#000000;stroke-width:2.0px;stroke-linecap:butt;stroke-linejoin:miter;stroke-opacity:1' />
<path class='bond-9 atom-9 atom-10' d='M 217.1,98.6 L 179.6,106.6' style='fill:none;fill-rule:evenodd;stroke:#000000;stroke-width:2.0px;stroke-linecap:butt;stroke-linejoin:miter;stroke-opacity:1' />
<path class='bond-9 atom-9 atom-10' d='M 215.1,104.9 L 184.0,111.5' style='fill:none;fill-rule:evenodd;stroke:#000000;stroke-width:2.0px;stroke-linecap:butt;stroke-linejoin:miter;stroke-opacity:1' />
<path class='bond-10 atom-10 atom-11' d='M 179.6,106.6 L 148.6,84.0' style='fill:none;fill-rule:evenodd;stroke:#000000;stroke-width:2.0px;stroke-linecap:butt;stroke-linejoin:miter;stroke-opacity:1' />
<path class='bond-11 atom-11 atom-12' d='M 148.6,84.0 L 117.5,106.6' style='fill:none;fill-rule:evenodd;stroke:#000000;stroke-width:2.0px;stroke-linecap:butt;stroke-linejoin:miter;stroke-opacity:1' />
<path class='bond-12 atom-12 atom-13' d='M 117.5,106.6 L 80.0,98.6' style='fill:none;fill-rule:evenodd;stroke:#000000;stroke-width:2.0px;stroke-linecap:butt;stroke-linejoin:miter;stroke-opacity:1' />
<path class='bond-12 atom-12 atom-13' d='M 113.1,111.5 L 82.0,104.9' style='fill:none;fill-rule:evenodd;stroke:#000000;stroke-width:2.0px;stroke-linecap:butt;stroke-linejoin:miter;stroke-opacity:1' />
<path class='bond-13 atom-13 atom-1' d='M 80.0,98.6 L 54.3,127.1' style='fill:none;fill-rule:evenodd;stroke:#000000;stroke-width:2.0px;stroke-linecap:butt;stroke-linejoin:miter;stroke-opacity:1' />
<path class='bond-14 atom-12 atom-4' d='M 117.5,106.6 L 129.4,143.1' style='fill:none;fill-rule:evenodd;stroke:#000000;stroke-width:2.0px;stroke-linecap:butt;stroke-linejoin:miter;stroke-opacity:1' />
<path class='bond-15 atom-10 atom-5' d='M 179.6,106.6 L 167.7,143.1' style='fill:none;fill-rule:evenodd;stroke:#000000;stroke-width:2.0px;stroke-linecap:butt;stroke-linejoin:miter;stroke-opacity:1' />
<path d='M 65.6,161.8 L 66.2,163.6 L 68.1,164.0' style='fill:none;stroke:#000000;stroke-width:2.0px;stroke-linecap:butt;stroke-linejoin:miter;stroke-miterlimit:10;stroke-opacity:1;' />
<path d='M 101.8,171.2 L 103.7,171.6 L 105.0,170.2' style='fill:none;stroke:#000000;stroke-width:2.0px;stroke-linecap:butt;stroke-linejoin:miter;stroke-miterlimit:10;stroke-opacity:1;' />
<path d='M 192.1,170.2 L 193.4,171.6 L 195.3,171.2' style='fill:none;stroke:#000000;stroke-width:2.0px;stroke-linecap:butt;stroke-linejoin:miter;stroke-miterlimit:10;stroke-opacity:1;' />
<path d='M 229.1,164.0 L 230.9,163.6 L 231.5,161.8' style='fill:none;stroke:#000000;stroke-width:2.0px;stroke-linecap:butt;stroke-linejoin:miter;stroke-miterlimit:10;stroke-opacity:1;' />
<path d='M 242.2,128.9 L 242.8,127.1 L 241.5,125.7' style='fill:none;stroke:#000000;stroke-width:2.0px;stroke-linecap:butt;stroke-linejoin:miter;stroke-miterlimit:10;stroke-opacity:1;' />
<path d='M 218.4,100.0 L 217.1,98.6 L 215.3,99.0' style='fill:none;stroke:#000000;stroke-width:2.0px;stroke-linecap:butt;stroke-linejoin:miter;stroke-miterlimit:10;stroke-opacity:1;' />
<path d='M 150.1,85.1 L 148.6,84.0 L 147.0,85.1' style='fill:none;stroke:#000000;stroke-width:2.0px;stroke-linecap:butt;stroke-linejoin:miter;stroke-miterlimit:10;stroke-opacity:1;' />
<path d='M 81.9,99.0 L 80.0,98.6 L 78.7,100.0' style='fill:none;stroke:#000000;stroke-width:2.0px;stroke-linecap:butt;stroke-linejoin:miter;stroke-miterlimit:10;stroke-opacity:1;' />
<path class='atom-1' d='M12.8,137.902 C14.2074,138.201 14.606,136.324 13.1986,136.025 C11.7912,135.726 12.1899,133.85 13.5973,134.149 C15.0047,134.448 15.4033,132.571 13.9959,132.272 C12.5885,131.973 12.9872,130.097 14.3946,130.396 C15.8019,130.695 16.2006,128.818 14.7932,128.519 C13.3858,128.22 13.7844,126.344 15.1918,126.643 C16.5992,126.942 16.9979,125.065 15.5905,124.766 C14.1831,124.467 14.5817,122.591 15.9891,122.889 C17.3965,123.188 17.7951,121.312 16.3877,121.013 C14.9803,120.714 15.379,118.837 16.7864,119.136 C18.1938,119.435 18.5924,117.559 17.185,117.26 C15.7776,116.961 16.1763,115.084 17.5837,115.383 C18.991,115.682 19.3897,113.806 17.9823,113.507 C16.5749,113.208 16.9735,111.331 18.3809,111.63 C19.7883,111.929 20.187,110.053 18.7796,109.754 C17.3722,109.455 17.7708,107.578 19.1782,107.877 C20.5856,108.176 20.9842,106.299 19.5768,106.001 C18.1694,105.702 18.5681,103.825 19.9755,104.124 C21.3829,104.423 21.7815,102.546 20.3741,102.247 C18.9667,101.948 19.3654,100.072 20.7728,100.371' style='fill:none;stroke:#7F7F7F;stroke-width:2.0px;stroke-linecap:butt;stroke-linejoin:miter;stroke-opacity:1' />
</svg>

<svg height="256" viewBox="0 0 256 256" width="256" xmlns="http://www.w3.org/2000/svg"><path d="m0 0h256v256h-256z" fill="#fff"/><g fill="none" stroke-width="2"><path d="m16.8 119.1 37.5 8" stroke="#000"/><path d="m54.3 127.1 11.9 36.5" stroke="#000"/><path d="m60.8 128.5 9.8 30.2" stroke="#000"/><path d="m66.2 163.6 37.5 8" stroke="#000"/><path d="m103.7 171.6 25.7-28.5" stroke="#000"/><path d="m101.6 165.3 21.3-23.6" stroke="#000"/><path d="m129.4 143.1h38.3" stroke="#000"/><path d="m167.7 143.1 25.7 28.5" stroke="#000"/><path d="m174.2 141.7 21.3 23.6" stroke="#000"/><path d="m193.4 171.6 37.5-8" stroke="#000"/><path d="m230.9 163.6 11.9-36.5" stroke="#000"/><path d="m226.5 158.7 9.8-30.2" stroke="#000"/><path d="m242.8 127.1-25.7-28.5" stroke="#000"/><path d="m217.1 98.6-37.5 8" stroke="#000"/><path d="m215.1 104.9-31.1 6.6" stroke="#000"/><path d="m179.6 106.6-31-22.6" stroke="#000"/><path d="m148.6 84-31.1 22.6" stroke="#000"/><path d="m117.5 106.6-37.5-8" stroke="#000"/><path d="m113.1 111.5-31.1-6.6" stroke="#000"/><path d="m80 98.6-25.7 28.5" stroke="#000"/><path d="m117.5 106.6 11.9 36.5" stroke="#000"/><path d="m179.6 106.6-11.9 36.5" stroke="#000"/><path d="m65.6 161.8.6 1.8 1.9.4" stroke="#000" stroke-miterlimit="10"/><path d="m101.8 171.2 1.9.4 1.3-1.4" stroke="#000" stroke-miterlimit="10"/><path d="m192.1 170.2 1.3 1.4 1.9-.4" stroke="#000" stroke-miterlimit="10"/><path d="m229.1 164 1.8-.4.6-1.8" stroke="#000" stroke-miterlimit="10"/><path d="m242.2 128.9.6-1.8-1.3-1.4" stroke="#000" stroke-miterlimit="10"/><path d="m218.4 100-1.3-1.4-1.8.4" stroke="#000" stroke-miterlimit="10"/><path d="m150.1 85.1-1.5-1.1-1.6 1.1" stroke="#000" stroke-miterlimit="10"/><path d="m81.9 99-1.9-.4-1.3 1.4" stroke="#000" stroke-miterlimit="10"/><path d="m12.8 137.902c1.407.299 1.806-1.578.399-1.877-1.408-.299-1.009-2.175.398-1.876 1.408.299 1.806-1.578.399-1.877s-1.009-2.175.399-1.876c1.407.299 1.806-1.578.398-1.877-1.407-.299-1.009-2.175.399-1.876 1.407.299 1.806-1.578.399-1.877-1.408-.299-1.009-2.175.398-1.877 1.408.299 1.806-1.577.399-1.876-1.408-.299-1.009-2.176.398-1.877 1.408.299 1.806-1.577.399-1.876s-1.009-2.176.399-1.877c1.407.299 1.806-1.577.398-1.876-1.407-.299-1.008-2.176.399-1.877s1.806-1.577.399-1.876c-1.408-.299-1.009-2.176.398-1.877 1.408.299 1.806-1.578.399-1.876-1.408-.299-1.009-2.176.399-1.877 1.407.299 1.806-1.578.398-1.877-1.407-.299-1.009-2.175.399-1.876" stroke="#7f7f7f"/></g></svg>
